assets/search-engines/startpg.svg

<svg width="501" height="501" viewBox="0 0 501 501" fill="none" xmlns="http://www.w3.org/2000/svg">
<g clip-path="url(#clip0_11_308)">
<path d="M106.89 179.149C108.973 125.15 154.37 81.457 209.764 81.457C263.075 81.457 306.805 121.441 312.22 172.966C339.708 173.378 366.78 173.79 394.27 175.027C389.27 78.1593 308.473 0.665527 209.764 0.665527C108.14 0.665527 25.2578 82.6935 25.2578 183.271C25.2578 184.507 25.2578 185.744 25.2578 186.981C52.3298 183.683 79.8183 181.21 106.89 179.149Z" fill="#6677FB"/>
<path d="M353.043 297.863L353.875 296.628C375.118 270.248 388.028 239.744 392.61 206.768C364.705 206.768 337.215 206.768 309.31 207.592C298.065 252.11 257.665 284.673 209.77 284.673C166.871 284.673 129.803 258.293 114.393 221.195C86.9045 224.08 59.416 227.79 31.9277 231.912C53.5852 308.993 125.222 365.465 209.77 365.465C236.841 365.465 263.498 359.695 288.07 348.153L289.32 347.74L290.153 348.565L404.27 486.24C412.185 495.72 423.43 501.08 435.925 501.08C445.503 501.08 454.668 497.78 461.748 492.01C470.078 485.003 475.49 475.523 476.325 464.805C477.158 454.088 474.243 443.783 467.16 435.128L353.043 297.863Z" fill="#202C46"/>
</g>
<defs>
<clipPath id="clip0_11_308">
<rect width="500" height="500" fill="white" transform="translate(0.257812 0.665527)"/>
</clipPath>
</defs>
</svg>

<svg width="501" height="501" viewBox="0 0 501 501" fill="none" xmlns="http://www.w3.org/2000/svg"><g clip-path="url(#a)"><path d="M106.89 179.149c2.083-53.999 47.48-97.692 102.874-97.692 53.311 0 97.041 39.984 102.456 91.509 27.488.412 54.56.824 82.05 2.061C389.27 78.159 308.473.666 209.764.666 108.14.666 25.258 82.694 25.258 183.27v3.71c27.072-3.298 54.56-5.771 81.632-7.832" fill="#6677fb"/><path d="m353.043 297.863.832-1.235c21.243-26.38 34.153-56.884 38.735-89.86-27.905 0-55.395 0-83.3.824-11.245 44.518-51.645 77.081-99.54 77.081-42.899 0-79.967-26.38-95.377-63.478-27.489 2.885-54.977 6.595-82.465 10.717 21.657 77.081 93.294 133.553 177.842 133.553 27.071 0 53.728-5.77 78.3-17.312l1.25-.413.833.825L404.27 486.24c7.915 9.48 19.16 14.84 31.655 14.84 9.578 0 18.743-3.3 25.823-9.07 8.33-7.007 13.742-16.487 14.577-27.205.833-10.717-2.082-21.022-9.165-29.677z" fill="#202c46"/></g><defs><clipPath id="a"><path fill="#fff" d="M.258.666h500v500h-500z"/></clipPath></defs></svg>
